P3
8 8
255
30 90 220  30 90 220  255 120 20  255 120 20  40 190 70  40 190 70  30 90 220  30 90 220
30 90 220  30 90 220  255 120 20  255 120 20  40 190 70  40 190 70  30 90 220  30 90 220
30 90 220  30 90 220  255 120 20  255 120 20  40 190 70  40 190 70  30 90 220  30 90 220
255 120 20  255 120 20  255 120 20  255 120 20  40 190 70  40 190 70  40 190 70  40 190 70
255 120 20  255 120 20  255 120 20  255 120 20  40 190 70  40 190 70  40 190 70  40 190 70
40 190 70  40 190 70  40 190 70  40 190 70  30 90 220  30 90 220  255 120 20  255 120 20
40 190 70  40 190 70  40 190 70  40 190 70  30 90 220  30 90 220  255 120 20  255 120 20
30 90 220  30 90 220  255 120 20  255 120 20  40 190 70  40 190 70  30 90 220  30 90 220
